svgs/light/gamepad-modern.svg

<svg xmlns="http://www.w3.org/2000/svg" viewBox="0 0 640 512"><!--! Font Awesome Pro 6.3.0 by @fontawesome - https://fontawesome.com License - https://fontawesome.com/license (Commercial License) Copyright 2023 Fonticons, Inc. --><path d="M638.6 368.2l-33.38-211.6c-4.422-25.12-16.52-47.82-34.05-65.77s-40.5-31.18-66.62-37.36c-25.12-5.93-58.4-11.3-91.79-15.19S345.8 32 319.1 32C294.2 32 260.6 34.41 227.2 38.29S160.6 47.56 135.5 53.48C109.3 59.66 86.36 72.88 68.83 90.83S39.2 131.5 34.78 156.6l-33.38 211.6c-5.156 29.26 4.195 57.21 22.67 77.84c18.48 20.63 46.08 33.95 77.42 33.95c24.84 0 48.29-7.512 67.49-20.6c19.2-13.09 34.15-31.75 42.01-54.04l7.5-21.36h203l7.5 21.36c7.859 22.29 22.81 40.95 42.01 54.04c19.2 13.09 42.64 20.6 67.49 20.6c31.34 0 58.95-13.31 77.42-33.95C634.4 425.4 643.8 397.5 638.6 368.2zM592.1 424.7C578.8 439.5 559.3 448 538.5 448c-17.92 0-35.03-5.203-49.46-15.04c-14.1-9.615-24.43-22.84-29.84-38.2l-7.5-21.36c-4.502-12.82-16.61-21.4-30.19-21.4h-203c-13.59 0-25.69 8.58-30.19 21.4l-7.486 21.32c-5.43 15.4-15.76 28.62-29.86 38.24C136.5 442.8 119.4 448 101.5 448c-20.79 0-40.32-8.49-53.58-23.3c-12.92-14.42-18.24-32.51-14.9-51.5l33.28-211C69.52 143.9 78.31 126.9 91.72 113.2c13.69-14.02 31.37-23.9 51.13-28.56C165.1 79.17 197.3 74 230.9 70.08C264.6 66.16 296.2 64 320 64c23.75 0 55.38 2.16 89.05 6.08c33.67 3.922 64.96 9.088 88.1 14.55c.2656 .0625 .5352 .123 .8047 .1777c19.42 4.738 36.8 14.54 50.31 28.39c13.42 13.75 22.21 30.68 25.34 48.41l33.47 212.2C610.3 392.2 605 410.3 592.1 424.7zM432 248c-6.627 0-12.63 2.684-16.97 7.029c-4.344 4.344-7.029 10.35-7.029 16.97s2.685 12.62 7.029 16.96c4.344 4.346 10.34 7.038 16.97 7.038c6.629 0 12.63-2.692 16.97-7.038c4.344-4.344 7.029-10.34 7.029-16.96s-2.686-12.63-7.029-16.97C444.6 250.7 438.6 248 432 248zM496 152c-6.627 0-12.63 2.685-16.97 7.031c-4.344 4.344-7.029 10.35-7.029 16.97s2.685 12.62 7.029 16.96c4.344 4.346 10.34 7.036 16.97 7.036c6.629 0 12.63-2.69 16.97-7.036c4.344-4.344 7.029-10.34 7.029-16.96s-2.686-12.63-7.029-16.97C508.6 154.7 502.6 152 496 152zM256 208H208V160c0-8.844-7.18-16-16.02-16S176 151.2 176 160v48H128C119.2 208 111.1 215.2 111.1 224S119.2 240 128 240h48V288c0 8.844 7.132 16 15.98 16S208 296.8 208 288V240H256c8.844 0 15.98-7.156 15.98-16S264.8 208 256 208z"/></svg>

<svg xmlns="http://www.w3.org/2000/svg" viewBox="0 0 640 512"><!-- Font Awesome Pro 6.0.0-alpha2 by @fontawesome - https://fontawesome.com License - https://fontawesome.com/license (Commercial License) --><path d="M638.594 368.215L605.219 156.613C600.797 131.488 588.695 108.795 571.168 90.84S530.688 59.664 504.563 53.484H504.5C479.375 47.555 446.148 42.184 412.754 38.295S345.797 32 320 32C294.188 32 260.617 34.406 227.223 38.295S160.609 47.555 135.5 53.484C109.328 59.664 86.359 72.881 68.828 90.834S39.203 131.48 34.781 156.613L1.406 368.215C-3.75 397.475 5.602 425.42 24.078 446.051C42.555 466.684 70.156 480 101.5 480C126.344 480 149.789 472.484 168.988 459.396C188.188 446.307 203.141 427.646 211 405.357L214.75 394.676L218.5 383.996H421.5L425.25 394.676L429 405.357C436.859 427.646 451.813 446.307 471.012 459.396C490.211 472.484 513.656 480 538.5 480C569.844 480 597.445 466.684 615.922 446.051C634.398 425.42 643.75 397.475 638.594 368.215ZM592.084 424.703C578.824 439.51 559.295 448 538.5 448C520.578 448 503.475 442.797 489.037 432.957C474.936 423.342 464.609 410.117 459.193 394.758L455.443 384.074L451.693 373.395C447.191 360.576 435.086 351.996 421.5 351.996H218.5C204.914 351.996 192.809 360.576 188.307 373.395L184.557 384.076L180.82 394.717C175.391 410.117 165.064 423.342 150.963 432.955C136.525 442.797 119.422 448 101.5 448C80.705 448 61.176 439.51 47.916 424.703C35 410.279 29.674 392.191 33.016 373.201L49.703 267.4L66.297 162.158C69.516 143.861 78.309 126.928 91.723 113.191C105.414 99.17 123.094 89.293 142.855 84.627C165.975 79.168 197.252 74.002 230.924 70.08C264.596 66.16 296.23 64 320 64C343.754 64 375.381 66.16 409.053 70.08C442.727 74.002 474.014 79.168 497.15 84.629C497.416 84.691 497.686 84.752 497.955 84.807C517.371 89.545 534.756 99.348 548.27 113.193C561.689 126.941 570.484 143.873 573.609 161.6L590.297 267.4L607.08 373.77C610.326 392.191 605 410.279 592.084 424.703ZM432 248C425.373 248 419.373 250.688 415.029 255.033C410.686 259.377 408 265.377 408 272S410.686 284.623 415.029 288.967C419.373 293.312 425.373 296 432 296C438.629 296 444.629 293.312 448.971 288.967C453.314 284.623 456 278.623 456 272S453.314 259.377 448.971 255.033C444.629 250.688 438.629 248 432 248ZM496 152C489.373 152 483.373 154.688 479.029 159.033C474.686 163.377 472 169.377 472 176S474.686 188.623 479.029 192.967C483.373 197.312 489.373 200 496 200C502.629 200 508.629 197.312 512.971 192.967C517.314 188.623 520 182.623 520 176S517.314 163.377 512.971 159.033C508.629 154.688 502.629 152 496 152ZM256 208H208V160C208 151.156 200.844 144 192 144S176 151.156 176 160V208H128C119.156 208 112 215.156 112 224S119.156 240 128 240H176V288C176 296.844 183.156 304 192 304S208 296.844 208 288V240H256C264.844 240 272 232.844 272 224S264.844 208 256 208Z"/></svg>
